assets/media/logo.svg

<svg xmlns="http://www.w3.org/2000/svg"  viewBox="0 0 500 500">
  <path style="stroke:none;stroke-width:1;stroke-dasharray:none;stroke-linecap:butt;stroke-dashoffset:0;stroke-linejoin:miter;stroke-miterlimit:4;fill:#f4a424;fill-rule:nonzero;opacity:1" vector-effect="non-scaling-stroke" transform="scale(4.95)" d="m72.3 12.3-.4-.8H28.2L6.3 50l21.8 38.5h43.7L93.7 50zm-39 13L9.9 47.7l18.6-32.8zm37.4-10.5 6.4 35.7-40.2-24.7zM35.5 27.3l41 25.2-41 23.3zM77 54.5l-7.2 30.8-32.6-8.1zM33.5 75 9.9 50.5l23.6-22.7zm-.3 2.6-4.6 7.7-17.1-30.2zm1.8 1 31.4 7.9H30.2zm44.3-25.3 11.6-2.5L72.1 84zm11.4-4.4-11.4 2.5-5.9-33.1zM35 24.3l-5-10.8h38.2z"/>
</svg>

<?xml version="1.0" encoding="UTF-8" standalone="no" ?>
<!DOCTYPE svg PUBLIC "-//W3C//DTD SVG 1.1//EN" "http://www.w3.org/Graphics/SVG/1.1/DTD/svg11.dtd">
<svg xmlns="http://www.w3.org/2000/svg" xmlns:xlink="http://www.w3.org/1999/xlink" version="1.1" width="1080" height="1080" viewBox="0 0 1080 1080" xml:space="preserve">
<desc>Created with Fabric.js 5.2.4</desc>
<defs>
</defs>
<rect x="0" y="0" width="100%" height="100%" fill="transparent"></rect>
<g transform="matrix(1 0 0 1 540 540)" id="2c9c5557-6f6f-436c-9bf1-6cc00f90d29c"  >
<rect style="stroke: none; stroke-width: 1; stroke-dasharray: none; stroke-linecap: butt; stroke-dashoffset: 0; stroke-linejoin: miter; stroke-miterlimit: 4; fill: rgb(255,255,255); fill-rule: nonzero; opacity: 1; visibility: hidden;" vector-effect="non-scaling-stroke"  x="-540" y="-540" rx="0" ry="0" width="1080" height="1080" />
</g>
<g transform="matrix(1 0 0 1 540 540)" id="c443b29b-49bf-439a-a9ce-d1495ed4e46b"  >
</g>
<g transform="matrix(4.95 0 0 4.95 540 540)"  >
<path style="stroke: none; stroke-width: 1; stroke-dasharray: none; stroke-linecap: butt; stroke-dashoffset: 0; stroke-linejoin: miter; stroke-miterlimit: 4; fill: rgb(244,164,36); fill-rule: nonzero; opacity: 1;" vector-effect="non-scaling-stroke"  transform=" translate(-50, -50)" d="M 72.3 12.3 L 71.9 11.5 L 28.2 11.5 L 6.3 50 L 28.1 88.5 L 71.8 88.5 L 93.7 50 z M 33.3 25.3 L 9.9 47.7 L 28.5 14.9 z M 70.7 14.8 L 77.1 50.5 L 36.9 25.8 z M 35.5 27.3 L 76.5 52.5 L 35.5 75.8 z M 77 54.5 L 69.8 85.3 L 37.2 77.2 z M 33.5 75 L 9.9 50.5 L 33.5 27.8 z M 33.2 77.6 L 28.6 85.3 L 11.5 55.1 z M 35 78.6 L 66.4 86.5 L 30.2 86.5 z M 79.3 53.3 L 90.9 50.8 L 72.1 84 z M 90.7 48.9 L 79.3 51.4 L 73.4 18.3 z M 35 24.3 L 30 13.5 L 68.2 13.5 z" stroke-linecap="round" />
</g>
</svg>
